src/assets/icons/crane.svg

<svg xmlns="http://www.w3.org/2000/svg" width="32" height="32" viewBox="0 0 32 32"><defs><style>.cls-1{fill-rule:evenodd;}</style></defs><g id="crane"><path id="Shape" class="cls-1" d="M31,13V7H16V0H8V7H1v6H8V32h8V13h7v5H20v6h8V18H25V13Zm-5,7v2H22V20ZM10,2h4V7H10Zm0,14h4v5H10Zm0-2V9h4v5ZM3,11V9H8v2Zm7,19V23h4v7ZM16,9H29v2H16Z"/></g></svg>

<?xml version="1.0" encoding="UTF-8"?>
<svg width="32px" height="32px" viewBox="0 0 32 32" version="1.1" xmlns="http://www.w3.org/2000/svg" xmlns:xlink="http://www.w3.org/1999/xlink">
    <!-- Generator: Sketch 61.2 (89653) - https://sketch.com -->
    <title>Atoms/Ikoner/Tjenester/crane</title>
    <desc>Created with Sketch.</desc>
    <g id="Atoms/Ikoner/Tjenester/crane" stroke="none" stroke-width="1" fill="none" fill-rule="evenodd">
        <g id="Crane">
            <path d="M31,13 L31,7 L16,7 L16,0 L8,0 L8,7 L1,7 L1,13 L8,13 L8,32 L16,32 L16,13 L23,13 L23,18 L20,18 L20,24 L28,24 L28,18 L25,18 L25,13 L31,13 Z M26,20 L26,22 L22,22 L22,20 L26,20 Z M10,2 L14,2 L14,7 L10,7 L10,2 Z M10,16 L14,16 L14,21 L10,21 L10,16 Z M10,14 L10,9 L14,9 L14,14 L10,14 Z M3,11 L3,9 L8,9 L8,11 L3,11 Z M10,30 L10,23 L14,23 L14,30 L10,30 Z M16,9 L29,9 L29,11 L16,11 L16,9 Z" id="Shape" fill="#2A2859"></path>
        </g>
    </g>
</svg>
